src/main/resources/ilovedevtoys/toolicons/DataFaker.svg

<svg ti:v='1' width='24' height='24' viewBox='0,0,16,16' xmlns='http://www.w3.org/2000/svg' xmlns:ti='urn:schemas-jetbrains-com:tisvg'><g><path fill-rule='evenodd' d='M0,0L16,0L16,16L0,16Z' fill='#FFFFFF' opacity='0'/><linearGradient id='F01' x1='0.5' y1='5.54865E-06' x2='0.5' y2='1.00001'><stop offset='0' stop-color='#800080'/><stop offset='1' stop-color='#5B005B'/></linearGradient><path fill-rule='evenodd' d='M5,13.250000817871097L5,7.7509008178710914L10,5.0000008178710971L15,7.7509008178710914L15,13.250000817871097L10,16.000000817871097L5,13.250000817871097Z' fill='url(#F01)'/><linearGradient id='F02' x1='0.0278301' y1='0.500025' x2='1.01539' y2='0.500025'><stop offset='0' stop-color='#FD59FF'/><stop offset='1' stop-color='#FF9CFF'/></linearGradient><path fill-rule='evenodd' d='M6,8.8010008178710919L6,12.659000817871096L10,14.857900817871091L10,11.000000817871097L6,8.8010008178710919Z' fill='url(#F02)'/><linearGradient id='F03' x1='0.027832' y1='0.500025' x2='1.01539' y2='0.500025'><stop offset='0' stop-color='#FD33FF'/><stop offset='1' stop-color='#FFA3FF'/></linearGradient><path fill-rule='evenodd' d='M14,8.8010008178710919L10,11.000000817871097L10,14.857900817871091L14,12.659000817871096L14,8.8010008178710919Z' fill='url(#F03)'/><path fill-rule='evenodd' d='M13.378900000000002,8.0000008178710971L9.9998999999999967,9.85790081787109L6.620900000000006,8.0000008178710971L5.9998999999999967,8.3419008178710925L5.9998999999999967,8.8010008178710919L9.9998999999999967,11.000000817871097L13.999899999999997,8.8010008178710919L13.999899999999997,8.3419008178710925L13.378900000000002,8.0000008178710971Z' fill='#FFE6FF'/><linearGradient id='F05' x1='0.5' y1='0.0277586' x2='0.5' y2='1.01555'><stop offset='0' stop-color='#FD54FF'/><stop offset='1' stop-color='#FFBFFF'/></linearGradient><path fill-rule='evenodd' d='M10,9.85790081787109L13.379000000000005,8.0000008178710971L10,6.142000817871093L6.6209999999999951,8.0000008178710971L10,9.85790081787109Z' fill='url(#F05)'/><linearGradient id='F06' x1='0.499999' y1='0.0185608' x2='0.499999' y2='1.0201'><stop offset='0' stop-color='#566980'/><stop offset='1' stop-color='#2D3642'/></linearGradient><path fill-rule='evenodd' d='M9.1929999999999978,8.1787109706965566E-07L8.3889999999999958,0.30700081787109212C7.3529999999999944,0.70300081787109292,6.1820000000000022,0.91300081787109377,5,0.91300081787109377L5,0.91300081787109377C3.8179999999999978,0.91300081787109377,2.6460000000000008,0.70300081787109292,1.6110000000000042,0.30700081787109212L0.80700000000000216,8.1787109706965566E-07L0.54099999999999682,8.1787109706965566E-07L0.28499999999999659,0.9920008178710944C0.096000000000003638,1.7219008178710951,0,2.4799008178710906,0,3.2420008178710944L0,3.2420008178710944C0,7.0310008178710959,2.195999999999998,10.000000817871097,5,10.000000817871097L5,10.000000817871097C7.8029999999999973,10.000000817871097,10,7.0310008178710959,10,3.2420008178710944L10,3.2420008178710944C10,2.4799008178710906,9.9039999999999964,1.7219008178710951,9.7150000000000034,0.9920008178710944L9.4590000000000032,8.1787109706965566E-07L9.1929999999999978,8.1787109706965566E-07Z' fill='url(#F06)'/><linearGradient id='F07' x1='0.499999' y1='3.14656E-05' x2='0.499999' y2='1.00001'><stop offset='0' stop-color='#F6FBFF'/><stop offset='1' stop-color='#E8F4FF'/></linearGradient><path fill-rule='evenodd' d='M5,1.9130008178710938C3.644999999999996,1.9130008178710938,2.3709999999999951,1.669000817871094,1.2530000000000001,1.2410008178710967L1.2530000000000001,1.2410008178710967C1.0919999999999987,1.865000817871092,1,2.5380008178710938,1,3.2420008178710944L1,3.2420008178710944C1,6.4220008178710941,2.7909999999999968,9.0000008178710971,5,9.0000008178710971L5,9.0000008178710971C7.2090000000000032,9.0000008178710971,9,6.4220008178710941,9,3.2420008178710944L9,3.2420008178710944C9,2.5380008178710938,8.909000000000006,1.865000817871092,8.747,1.2410008178710967L8.747,1.2410008178710967C7.6290000000000049,1.669000817871094,6.3539999999999992,1.9130008178710938,5,1.9130008178710938Z' fill='url(#F07)'/><path fill-rule='evenodd' d='M3,6.0000008178710971C3,7.0000008178710971,4.0400000000000063,8.0000008178710971,5,8.0000008178710971C5.9599999999999937,8.0000008178710971,7,7.0000008178710971,7,6.0000008178710971C6.3850000000000051,6.7249008178710952,3.6149999999999949,6.7249008178710952,3,6.0000008178710971Z' fill='#000000'/><path fill-rule='evenodd' d='M6.0605000000000047,3.0000008178710971C6.0234999999999985,3.1569008178710902,5.9994999999999976,3.3239008178710918,5.9994999999999976,3.5000008178710971C5.9994999999999976,4.3289008178710944,6.4475000000000051,5.0000008178710971,6.9994999999999976,5.0000008178710971C7.5524999999999949,5.0000008178710971,7.9994999999999976,4.3289008178710944,7.9994999999999976,3.5000008178710971C7.9994999999999976,3.3239008178710918,7.9765000000000015,3.1569008178710902,7.9394999999999953,3.0000008178710971L6.0605000000000047,3.0000008178710971Z' fill='#000000'/><path fill-rule='evenodd' d='M2.0605000000000047,3.0000008178710971C2.0234999999999985,3.1569008178710902,1.9994999999999976,3.3239008178710918,1.9994999999999976,3.5000008178710971C1.9994999999999976,4.3289008178710944,2.4475000000000051,5.0000008178710971,2.9994999999999976,5.0000008178710971C3.5524999999999949,5.0000008178710971,3.9994999999999976,4.3289008178710944,3.9994999999999976,3.5000008178710971C3.9994999999999976,3.3239008178710918,3.9765000000000015,3.1569008178710902,3.9394999999999953,3.0000008178710971L2.0605000000000047,3.0000008178710971Z' fill='#000000'/></g></svg>

<svg ti:v="1" width="24" height="24" viewBox="0 0 16 16" xmlns="http://www.w3.org/2000/svg" xmlns:ti="urn:schemas-jetbrains-com:tisvg"><linearGradient id="a" x1=".5" y1="0" x2=".5" y2="1"><stop offset="0" stop-color="purple"/><stop offset="1" stop-color="#5B005B"/></linearGradient><path fill-rule="evenodd" d="M5 13.25v-5.5L10 5l5 2.75v5.5L10 16l-5-2.75Z" fill="url(#a)"/><linearGradient id="b" x1=".028" y1=".5" x2="1.015" y2=".5"><stop offset="0" stop-color="#FD59FF"/><stop offset="1" stop-color="#FF9CFF"/></linearGradient><path fill-rule="evenodd" d="M6 8.801v3.858l4 2.199V11L6 8.801Z" fill="url(#b)"/><linearGradient id="c" x1=".028" y1=".5" x2="1.015" y2=".5"><stop offset="0" stop-color="#FD33FF"/><stop offset="1" stop-color="#FFA3FF"/></linearGradient><path fill-rule="evenodd" d="M14 8.801 10 11v3.858l4-2.199V8.801Z" fill="url(#c)"/><path fill-rule="evenodd" d="m13.379 8-3.38 1.858L6.622 8 6 8.342V8.8l4 2.2 4-2.199v-.46L13.379 8Z" fill="#FFE6FF"/><linearGradient id="d" x1=".5" y1=".028" x2=".5" y2="1.016"><stop offset="0" stop-color="#FD54FF"/><stop offset="1" stop-color="#FFBFFF"/></linearGradient><path fill-rule="evenodd" d="M10 9.858 13.379 8 10 6.142 6.621 8 10 9.858Z" fill="url(#d)"/><linearGradient id="e" x1=".5" y1=".019" x2=".5" y2="1.02"><stop offset="0" stop-color="#566980"/><stop offset="1" stop-color="#2D3642"/></linearGradient><path fill-rule="evenodd" d="m9.193 0-.804.307A9.584 9.584 0 0 1 5 .913 9.58 9.58 0 0 1 1.611.307L.807 0H.541L.285.992A8.987 8.987 0 0 0 0 3.242C0 7.031 2.196 10 5 10c2.803 0 5-2.969 5-6.758 0-.762-.096-1.52-.285-2.25L9.459 0h-.266Z" fill="url(#e)"/><linearGradient id="f" x1=".5" y1="0" x2=".5" y2="1"><stop offset="0" stop-color="#F6FBFF"/><stop offset="1" stop-color="#E8F4FF"/></linearGradient><path fill-rule="evenodd" d="M5 1.913c-1.355 0-2.629-.244-3.747-.672A8.016 8.016 0 0 0 1 3.242C1 6.422 2.791 9 5 9s4-2.578 4-5.758a7.97 7.97 0 0 0-.253-2.001A10.512 10.512 0 0 1 5 1.913Z" fill="url(#f)"/><path fill-rule="evenodd" d="M3 6c0 1 1.04 2 2 2s2-1 2-2c-.615.725-3.385.725-4 0Zm3.06-3a2.172 2.172 0 0 0-.06.5C6 4.329 6.447 5 7 5s1-.671 1-1.5c0-.176-.023-.343-.06-.5H6.06Zm-4 0a2.172 2.172 0 0 0-.06.5C2 4.329 2.447 5 3 5s1-.671 1-1.5c0-.176-.023-.343-.06-.5H2.06Z"/></svg>
